icons/svg/shields/h_toll_gantry_shield.svg

<?xml version="1.0" encoding="UTF-8" standalone="no"?>
<!-- Created with Inkscape (http://www.inkscape.org/) -->

<svg
   xmlns:dc="http://purl.org/dc/elements/1.1/"
   xmlns:cc="http://creativecommons.org/ns#"
   xmlns:rdf="http://www.w3.org/1999/02/22-rdf-syntax-ns#"
   xmlns:svg="http://www.w3.org/2000/svg"
   xmlns="http://www.w3.org/2000/svg"
   xmlns:sodipodi="http://sodipodi.sourceforge.net/DTD/sodipodi-0.dtd"
   xmlns:inkscape="http://www.inkscape.org/namespaces/inkscape"
   version="1.0"
   width="16"
   height="16"
   id="svg2"
   sodipodi:version="0.32"
   inkscape:version="0.92.3 (2405546, 2018-03-11)"
   sodipodi:docname="h_antenna_shield.svg"
   inkscape:output_extension="org.inkscape.output.svg.inkscape">
  <metadata
     id="metadata10">
    <rdf:RDF>
      <cc:Work
         rdf:about="">
        <dc:format>image/svg+xml</dc:format>
        <dc:type
           rdf:resource="http://purl.org/dc/dcmitype/StillImage" />
        <cc:license
           rdf:resource="http://web.resource.org/cc/PublicDomain" />
        <dc:language>en</dc:language>
        <dc:title />
      </cc:Work>
    </rdf:RDF>
  </metadata>
  <sodipodi:namedview
     inkscape:window-height="1006"
     inkscape:window-width="1920"
     inkscape:pageshadow="2"
     inkscape:pageopacity="0.0"
     guidetolerance="10.0"
     gridtolerance="10.0"
     objecttolerance="10.0"
     borderopacity="1.0"
     bordercolor="#666666"
     pagecolor="#ffffff"
     id="base"
     showgrid="false"
     inkscape:zoom="32"
     inkscape:cx="12.08097"
     inkscape:cy="7.9823474"
     inkscape:window-x="1920"
     inkscape:window-y="0"
     inkscape:current-layer="svg2"
     inkscape:window-maximized="1"
     showguides="true"
     inkscape:guide-bbox="true" />
  <defs
     id="defs4">
    <inkscape:perspective
       sodipodi:type="inkscape:persp3d"
       inkscape:vp_x="0 : 290 : 1"
       inkscape:vp_y="0 : 1000 : 0"
       inkscape:vp_z="580 : 290 : 1"
       inkscape:persp3d-origin="290 : 193.33333 : 1"
       id="perspective12" />
    <style
       type="text/css"
       id="style6">
   
    .fil0 {fill:#EF7900}
   
  </style>
    <inkscape:perspective
       id="perspective6807"
       inkscape:persp3d-origin="29.116032 : 19.410688 : 1"
       inkscape:vp_z="58.232063 : 29.116032 : 1"
       inkscape:vp_y="0 : 1000 : 0"
       inkscape:vp_x="0 : 29.116032 : 1"
       sodipodi:type="inkscape:persp3d" />
    <inkscape:perspective
       id="perspective6954"
       inkscape:persp3d-origin="290 : 193.33333 : 1"
       inkscape:vp_z="580 : 290 : 1"
       inkscape:vp_y="0 : 1000 : 0"
       inkscape:vp_x="0 : 290 : 1"
       sodipodi:type="inkscape:persp3d" />
    <inkscape:perspective
       id="perspective2541"
       inkscape:persp3d-origin="240 : 160 : 1"
       inkscape:vp_z="480 : 240 : 1"
       inkscape:vp_y="0 : 1000 : 0"
       inkscape:vp_x="0 : 240 : 1"
       sodipodi:type="inkscape:persp3d" />
    <inkscape:perspective
       id="perspective2750"
       inkscape:persp3d-origin="215 : 143.33333 : 1"
       inkscape:vp_z="430 : 215 : 1"
       inkscape:vp_y="0 : 1000 : 0"
       inkscape:vp_x="0 : 215 : 1"
       sodipodi:type="inkscape:persp3d" />
    <inkscape:perspective
       id="perspective3730"
       inkscape:persp3d-origin="88.929146 : 101.19778 : 1"
       inkscape:vp_z="177.85829 : 151.79668 : 1"
       inkscape:vp_y="0 : 1000 : 0"
       inkscape:vp_x="0 : 151.79668 : 1"
       sodipodi:type="inkscape:persp3d" />
  </defs>
  <path
     style="font-style:normal;font-variant:normal;font-weight:normal;font-stretch:normal;font-size:323.14517212px;line-height:125%;font-family:'Arial Unicode MS';-inkscape-font-specification:'Arial Unicode MS';text-align:start;writing-mode:lr-tb;text-anchor:start;opacity:0.81199999;vector-effect:none;fill:#ebe7e4;fill-opacity:1;stroke:none;stroke-width:0.78325456;stroke-linecap:butt;stroke-linejoin:miter;stroke-miterlimit:4;stroke-dasharray:none;stroke-dashoffset:0;stroke-opacity:1;marker:none"
     d="M 13.890625,1.3847656 C 13.065803,1.396413 12.325809,2.1555177 12.335937,2.9804688 V 7.7988281 H 11.351562 C 11.437446,7.6093093 11.463999,7.3982452 11.427732,7.1933594 11.307462,6.5253018 10.958017,5.8931253 10.425781,5.4746094 10.111094,5.2271786 9.7934036,5.2083054 9.4746091,5.1191406 9.2710514,4.517312 8.776204,4.0046114 8.1328123,4.0136719 h -0.00195 C 7.4910518,4.0233521 7.0046307,4.5429238 6.816406,5.1464844 6.4000385,5.2811667 5.9481216,5.3440909 5.6269529,5.6582031 5.1177495,6.1562338 4.8105455,6.8683671 4.8105466,7.5800781 c -1e-7,0.08188 0.09124,0.1369202 0.099609,0.21875 H 3.5644529 V 2.9804688 C 3.5748979,2.1639251 2.826309,1.4153364 2.0097654,1.4257812 h -0.00195 C 1.2051677,1.4373163 0.48580887,2.1778072 0.4960935,2.9804688 v 5.7617187 c -0.002552,0.029228 -0.003855,0.058552 -0.003906,0.087891 v 2.5097655 c 5.693e-5,0.56952 0.46173,1.031193 1.03125,1.03125 h 3.3535154 c 0.1911528,-3.02e-4 0.3784606,-0.05372 0.5410156,-0.154297 0.1058075,0.13478 0.088979,0.341071 0.2207031,0.453125 0.3188036,0.271199 0.7449805,0.334533 1.1386719,0.46289 0.1466111,0.66431 0.6856655,1.248047 1.375,1.248047 0.7029688,0 1.2608379,-0.6034 1.390625,-1.285156 0.411694,-0.132507 0.8488755,-0.178648 1.1914065,-0.509765 0.09577,-0.09258 0.07207,-0.252444 0.154296,-0.357422 0.157487,0.09272 0.33678,0.141921 0.519532,0.142578 h 3.06836 c 0.56952,-5.7e-5 1.031193,-0.46173 1.03125,-1.03125 V 8.8300781 c -7.19e-4,-0.05567 -0.0059,-0.1111895 -0.01563,-0.1660156 V 2.9824219 c 0.01035,-0.8400121 -0.759741,-1.6098162 -1.59961,-1.5976563 z"
     id="text2413"
     inkscape:connector-curvature="0"
     sodipodi:nodetypes="ccccccccccccccccccccccccccsccccccccccc" />
</svg>

<svg width="16" height="16" viewBox="0 0 16 16" fill="none" xmlns="http://www.w3.org/2000/svg">
<path opacity="0.812" d="M13.8906 1.38479C13.0658 1.39643 12.3258 2.15554 12.3359 2.98049V7.79885H11.3516C11.4374 7.60933 11.464 7.39827 11.4277 7.19338C11.3075 6.52532 10.958 5.89315 10.4258 5.47463C10.1111 5.2272 9.7934 5.20833 9.47461 5.11916C9.27105 4.51733 8.7762 4.00463 8.13281 4.01369H8.13086C7.49105 4.02337 7.00463 4.54294 6.81641 5.1465C6.40004 5.28119 5.94812 5.34411 5.62695 5.65822C5.11775 6.15625 4.81055 6.86839 4.81055 7.5801C4.81055 7.66198 4.90179 7.71702 4.91016 7.79885H3.56445V2.98049C3.5749 2.16395 2.82631 1.41536 2.00977 1.4258H2.00782C1.20517 1.43734 0.485809 2.17783 0.496094 2.98049V8.74221C0.493542 8.77144 0.492238 8.80076 0.492188 8.8301V11.3399C0.492244 11.9094 0.953918 12.3711 1.52344 12.3711H4.87695C5.06811 12.3708 5.25541 12.3174 5.41797 12.2168C5.52378 12.3516 5.50695 12.5579 5.63867 12.6699C5.95748 12.9411 6.38365 13.0045 6.77734 13.1328C6.92395 13.7971 7.46301 14.3809 8.15234 14.3809C8.85531 14.3809 9.41318 13.7775 9.54297 13.0957C9.95466 12.9632 10.3918 12.9171 10.7344 12.586C10.8301 12.4934 10.8064 12.3335 10.8887 12.2285C11.0462 12.3213 11.2255 12.3705 11.4082 12.3711H14.4766C15.0461 12.3711 15.5078 11.9094 15.5078 11.3399V8.8301C15.5071 8.77443 15.5019 8.71891 15.4922 8.66408V2.98244C15.5025 2.14243 14.7324 1.37263 13.8926 1.38479H13.8906Z" fill="#EBE7E4"/>
</svg>
